svgs/teamviewer.svg

<svg xmlns="http://www.w3.org/2000/svg" viewBox="0 0 48 48"><path d="M24 3c11.598 0 21 9.402 21 21s-9.402 21-21 21S3 35.598 3 24 12.402 3 24 3Z" fill="none" stroke="#000" stroke-width="3" stroke-linecap="round" stroke-linejoin="round"/><path d="m5.101 24 13.737 6.988-1.747-4.728H24M5.101 24l13.737-6.988-1.747 4.728H24M24 26.26h6.909l-1.747 4.728L42.899 24M42.899 24l-13.737-6.988 1.747 4.728H24" fill="none" stroke="#000" stroke-width="3" stroke-linecap="round" stroke-linejoin="round"/></svg>

<svg
    xmlns="http://www.w3.org/2000/svg"
    viewBox="0 0 48 48"
    id="vector">
    <path
        id="path"
        d="M 24 3 C 35.598 3 45 12.402 45 24 C 45 35.598 35.598 45 24 45 C 12.402 45 3 35.598 3 24 C 3 12.402 12.402 3 24 3 Z"
        fill="none"
        stroke="#000000"
        stroke-width="3"
        stroke-linecap="round"
        stroke-linejoin="round"/>
    <path
        id="path_1"
        d="M 5.101 24 L 18.838 30.988 L 17.091 26.26 L 24 26.26"
        fill="none"
        stroke="#000000"
        stroke-width="3"
        stroke-linecap="round"
        stroke-linejoin="round"/>
    <path
        id="path_2"
        d="M 5.101 24 L 18.838 17.012 L 17.091 21.74 L 24 21.74"
        fill="none"
        stroke="#000000"
        stroke-width="3"
        stroke-linecap="round"
        stroke-linejoin="round"/>
    <path
        id="path_3"
        d="M 24 26.26 L 30.909 26.26 L 29.162 30.988 L 42.899 24"
        fill="none"
        stroke="#000000"
        stroke-width="3"
        stroke-linecap="round"
        stroke-linejoin="round"/>
    <path
        id="path_4"
        d="M 42.899 24 L 29.162 17.012 L 30.909 21.74 L 24 21.74"
        fill="none"
        stroke="#000000"
        stroke-width="3"
        stroke-linecap="round"
        stroke-linejoin="round"/>
</svg>
